X:22
T:THE MACHINE WITHOUT HORSES/BLackthorne Stick # 4
M:6/8
S:May 2002 pdf files R.S.
R:Jig
K:A
e|\
"A" aga "D" faf | "A" ecA "D" BAF | "A" EAA "E7" GAB | "A" ABc "E7" B2e|!
"A" aga "D" baf | "A" ecA "D" BAF | "A" EAA "E7" GAB | "A" cAG      A2:|!
|: e |\
"D" fee "A" aee | "D" fee "A" aee | "D" fef "A"  agf | "Bm" fec "E7" B2e|!
"A" aga "D" baf | "A" ecA "D" BAF | "A" EAA "E7" GAB | "A"  cAG      A2:|
